symbols/web/dangerous/materialsymbolsrounded/dangerous_wght200_20px.svg

<svg xmlns="http://www.w3.org/2000/svg" height="20" width="20"><path d="M7.833 16.667q-.291 0-.573-.115-.281-.114-.468-.323l-3.021-3.021q-.209-.187-.323-.468-.115-.282-.115-.573V7.833q0-.291.115-.573.114-.281.323-.468l3.021-3.021q.187-.209.468-.323.282-.115.573-.115h4.334q.291 0 .573.115.281.114.468.323l3.021 3.021q.209.187.323.468.115.282.115.573v4.334q0 .291-.115.573-.114.281-.323.468l-3.021 3.021q-.187.209-.468.323-.282.115-.573.115ZM10 10.646l2.042 2.042q.125.145.312.145.188 0 .334-.166.166-.146.166-.323 0-.177-.166-.323L10.646 10l2.042-2.042q.145-.125.156-.312.01-.188-.156-.334-.146-.166-.323-.166-.177 0-.323.166L10 9.354 7.958 7.312q-.125-.145-.302-.156-.177-.01-.323.156-.166.146-.166.323 0 .177.166.323L9.354 10l-2.042 2.042q-.145.125-.145.302t.166.323q.146.166.323.166.177 0 .323-.166ZM7.604 15.75h4.792l3.354-3.354V7.604L12.396 4.25H7.604L4.25 7.604v4.792ZM10 10Z"/></svg>

<svg xmlns="http://www.w3.org/2000/svg" height="20" width="20"><path d="M7.833 16.667Q7.542 16.667 7.26 16.552Q6.979 16.438 6.792 16.229L3.771 13.208Q3.562 13.021 3.448 12.74Q3.333 12.458 3.333 12.167V7.833Q3.333 7.542 3.448 7.26Q3.562 6.979 3.771 6.792L6.792 3.771Q6.979 3.562 7.26 3.448Q7.542 3.333 7.833 3.333H12.167Q12.458 3.333 12.74 3.448Q13.021 3.562 13.208 3.771L16.229 6.792Q16.438 6.979 16.552 7.26Q16.667 7.542 16.667 7.833V12.167Q16.667 12.458 16.552 12.74Q16.438 13.021 16.229 13.208L13.208 16.229Q13.021 16.438 12.74 16.552Q12.458 16.667 12.167 16.667ZM10 10.646 12.042 12.688Q12.167 12.833 12.354 12.833Q12.542 12.833 12.688 12.667Q12.854 12.521 12.854 12.344Q12.854 12.167 12.688 12.021L10.646 10L12.688 7.958Q12.833 7.833 12.844 7.646Q12.854 7.458 12.688 7.312Q12.542 7.146 12.365 7.146Q12.188 7.146 12.042 7.312L10 9.354L7.958 7.312Q7.833 7.167 7.656 7.156Q7.479 7.146 7.333 7.312Q7.167 7.458 7.167 7.635Q7.167 7.812 7.333 7.958L9.354 10L7.312 12.042Q7.167 12.167 7.167 12.344Q7.167 12.521 7.333 12.667Q7.479 12.833 7.656 12.833Q7.833 12.833 7.979 12.667ZM7.604 15.75H12.396L15.75 12.396V7.604L12.396 4.25H7.604L4.25 7.604V12.396ZM10 10Z"/></svg>
